X: 196
T: Song in Honor of John Grass
C: Teton Sioux band 1911-1914
N: Derived from sioux191.krn
O: South Dakota, U.S.A.
N: Teton Sioux Music by Frances Densmore, 1918
Z: transcribed to **kern format by Craig Sapp
L: 1/8
M: 3/4
Q: 1/4=58
K: B clef=bass
%%linebreak <none>
F, F F D F/ D3/ [I:setbarnb 1]||  
[M:2/4]D/ C/ C B, B, ||  
[M:3/4]C CC2C2 | 
B, D D/ C/ C E/ C3/ ||  
[M:2/4]C/ B,/ B, F, F, ||  
[M:3/4]B,2B,2B,2 | 
B, C C/ B,/ B, D/ B,3/ ||  
[M:2/4]B,/ F,/ F, F, F, | 
F,2F,2 | 
F,2F,2 ||  
[M:3/4]F, F F D (F/ D/) D | 
(D/ C/) C B,< B, C C | 
C2C2C2 | 
B, D D/ D/ C E/ C3/ ||  
[M:2/4](C/ B,/) B, F, F, ||  
[M:3/4]B,2B,2B,2 | 
B, C (C/ B,/) B, B, B, | 
D< B, (B,/ F,/) F, F, F, ||  
[M:2/4]F,2F,2 | 
F,4 |]  



